!!!OTL: Graf und Nonne (Die Nonne)
!!!OTL-incipit:Ich stand auf hohen Bergen
!!!ARE: Europa, Mitteleuropa, Deutschland (), Brandenburg, Soldin, Adamsdorf
!!!YOR: 8, S. 36
!!    1856 aufgezeichnet
!!!SCT: Q0155G
!!!TXL: @@DE
!!!YEM: Copyright 1995, estate of Helmut Schaffrath.
**kern	**text
*ICvox	*
*M2/4	*
*k[b-]	*
*F:	*
{(16fL	Ich
16aJ)	.
=1	=1
8.ccL	stand
16ffJ	auf
(16ccL	ho-
16b-)	.
(16a	-hen
16gJ)	.
=2	=2
4a	Ber-
8g}	-gen
{8g	und
=3	=3
8aL	sah
8aJ	in's
(16b-L	tie-
16a)	.
(16b-	-fe
16ddJ)	.
=4	=4
4cc	Thal,
8r}	.
{8cc	ein
=5	=5
8ffL	Schiff-
8ffJ	-lein
(16eeL	sah
16dd)	.
8ccJ	ich
=6	=6
(4dd	schwim-
4cc	.
=7	=7
4b-)	.
8a}	-men,
{8cc	da-
=8	=8
8ddL	-rin
(16cc	drei
16b-J)	.
8aL	Gra-
8gJ	-fen
=9	=9
4f	warn.
8r}	.
==	==
!!!AGN: Ballade, Standesunterschied, vergebliche Werbung, Liebe, Klage, Tod
!!!ONB: ESAC (Essen Associative Code) Database: BALLADE
!!!AMT: simple duple
!!!AIN: vox
!!!EED: Helmut Schaffrath
!!!EEV: 1.0
!!@@COMMENT:"Durch Seelig aus Adamsdorſ bei Soldin
!!(Brandenburg). 8. Febr. 1856 (DVA-EE874)"
!!@@END:
!!!source: Deutsche Volkslieder mit ihren Melodien. Herausgegeben vom Deutschen Volksliedarchiv. Achter Teil. Freiburg/Breisgau 1988.
!!!page: 36
!!!ENC: Anna Maria Matuszewska
!!!EEV: 2025/03/10
*-	*-
